src/data/flags/russia/khanty-mansi-autonomous-okrug.svg

<svg height="600" viewBox="0 0 40 20" width="1200" xmlns="http://www.w3.org/2000/svg"><path d="m0 0h40v20h-40z" fill="#fff"/><path d="m0 0h38v20h-38z" fill="#00971c"/><path d="m0 0h38v10h-38z" fill="#2e96ff"/><path d="m15 2-3 4h-4l-3-4m7.5.25-2.5 3.4-2.5-3.4m1 1.35 1-1.35m2 1.35-1-1.35" fill="none" stroke="#fff" stroke-linecap="round"/></svg>

<?xml version="1.0" encoding="utf-8"?>
<svg xmlns="http://www.w3.org/2000/svg" width="1200" height="600" viewBox="0 0 40 20">
<rect width="40" height="20" fill="#fff"/>
<rect width="38" height="20" fill="#00971C"/>
<rect width="38" height="10" fill="#2E96FF"/>
<path fill="none" stroke="#fff" stroke-linecap="round" d="M15,2 12,6 8,6 5,2 M12.5,2.25 10,5.65 7.5,2.25 M8.5,3.6 9.5,2.25 M11.5,3.6 10.5,2.25"/>
</svg>
